brandFactory_export/2.Regular/Web _2Regular.svg

<?xml version="1.0" encoding="UTF-8"?>
<svg width="24px" height="24px" viewBox="0 0 24 24" version="1.1" xmlns="http://www.w3.org/2000/svg" xmlns:xlink="http://www.w3.org/1999/xlink">
    <title>2.Regular/Web _2Regular</title>
    <g id="Symbols" stroke="none" stroke-width="1" fill="none" fill-rule="evenodd">
        <g id="2.Regular/Web-_2Regular" fill="#5CB615" fill-rule="nonzero">
            <path d="M22.1478992,6.79159664 L22.1478992,4.71428571 C22.1478992,4.5697479 22.0235294,4.4487395 21.8756303,4.4487395 L1.7512605,4.4487395 C1.6,4.4487395 1.47563025,4.56638655 1.47563025,4.71428571 L1.47563025,6.79159664 L22.1478992,6.79159664 Z M22.1478992,19.0605042 L22.1478992,8.21008403 L1.47563025,8.21008403 L1.47563025,19.0605042 C1.47563025,19.205042 1.6,19.3227575 1.7512605,19.3227575 L21.8756303,19.3227575 C22.0235294,19.3260504 22.1478992,19.205042 22.1478992,19.0605042 L22.1478992,19.0605042 Z M21.8756303,3.0302521 C22.8403361,3.0302521 23.6235294,3.78655462 23.6235294,4.71428571 L23.6235294,19.0605042 C23.6235294,19.9915966 22.8369748,20.7445378 21.8756303,20.7445378 L1.7512605,20.7445378 C0.786554622,20.7445378 0,19.9882353 0,19.0605042 L0,4.71428571 C0,3.78319328 0.786554622,3.0302521 1.7512605,3.0302521 L21.8756303,3.0302521 L21.8756303,3.0302521 Z M4.4907563,17.1445378 C4.21512605,16.8554622 4.23193277,16.4084034 4.53109244,16.1394958 L7.27394958,13.6991597 L4.53445378,11.3058824 C4.23193277,11.0436975 4.20840336,10.5932773 4.48403361,10.3008403 C4.75630252,10.0084034 5.22352941,9.98823529 5.52605042,10.2537815 L8.8605042,13.1680672 C9.01512605,13.302521 9.10252101,13.4907563 9.10252101,13.692437 C9.10252101,13.8907563 9.01848739,14.0823529 8.86386555,14.2168067 L5.52941176,17.1848739 C5.38823529,17.312605 5.20672269,17.3731092 5.02857143,17.3731092 C4.83361345,17.3731092 4.63529412,17.2957983 4.4907563,17.1445378 Z M10.6857143,14.4319328 C10.2789916,14.4319328 9.94621849,14.112605 9.94621849,13.7226891 C9.94621849,13.3294118 10.2756303,13.0134454 10.6857143,13.0134454 L18.5915966,13.0134454 C18.9983193,13.0134454 19.3310924,13.3327731 19.3310924,13.7226891 C19.3310924,14.1159664 19.0016807,14.4319328 18.5915966,14.4319328 L10.6857143,14.4319328 Z M5.06218487,4.92605042 C5.43865546,4.92605042 5.74453782,5.22184874 5.74453782,5.58487395 C5.74453782,5.94789916 5.43865546,6.24369748 5.06218487,6.24369748 C4.68235294,6.24369748 4.37983193,5.94789916 4.37983193,5.58487395 C4.37983193,5.21848739 4.68235294,4.92605042 5.06218487,4.92605042 Z M7.11260504,4.92605042 C7.49243697,4.92605042 7.79495798,5.22184874 7.79495798,5.58487395 C7.79495798,5.94789916 7.48907563,6.24369748 7.11260504,6.24369748 C6.73613445,6.24369748 6.4302521,5.94789916 6.4302521,5.58487395 C6.4302521,5.21848739 6.73613445,4.92605042 7.11260504,4.92605042 Z M3.00840336,4.92605042 C3.38823529,4.92605042 3.6907563,5.22184874 3.6907563,5.58487395 C3.6907563,5.94789916 3.38487395,6.24369748 3.00840336,6.24369748 C2.62857143,6.24369748 2.32605042,5.94789916 2.32605042,5.58487395 C2.32605042,5.21848739 2.63193277,4.92605042 3.00840336,4.92605042 Z" id="Web-_2Regular"></path>
        </g>
    </g>
</svg>

<svg width="24" height="24" viewBox="0 0 24 24" xmlns="http://www.w3.org/2000/svg"><path d="M22.148 6.792V4.714a.272.272 0 00-.272-.265H1.75a.27.27 0 00-.275.265v2.078h20.672zm0 12.269V8.21H1.476v10.85a.27.27 0 00.275.262h20.125a.267.267 0 00.272-.262zm-.272-16.03c.964 0 1.748.756 1.748 1.683v14.347c0 .93-.787 1.684-1.748 1.684H1.75C.787 20.745 0 19.988 0 19.06V4.714c0-.93.787-1.684 1.751-1.684h20.125zM4.49 17.144a.694.694 0 01.04-1.006l2.743-2.44-2.74-2.393a.692.692 0 01-.05-1.005.754.754 0 011.042-.047l3.335 2.914a.691.691 0 01.003 1.049l-3.335 2.968a.745.745 0 01-.5.188.746.746 0 01-.538-.228zm6.195-2.713c-.407 0-.74-.32-.74-.71 0-.393.33-.709.74-.709h7.906c.406 0 .74.32.74.71 0 .393-.33.709-.74.709h-7.906zM5.062 4.926c.377 0 .683.296.683.659a.672.672 0 01-.683.659.67.67 0 01-.682-.66c0-.366.302-.658.682-.658zm2.05 0a.67.67 0 01.683.659.672.672 0 01-.682.659.672.672 0 01-.683-.66.67.67 0 01.683-.658zm-4.104 0a.67.67 0 01.683.659.672.672 0 01-.683.659.67.67 0 01-.682-.66.67.67 0 01.682-.658z" fill="#5CB615" fill-rule="nonzero"/></svg>
